X:16144
T:Swallow's Hornpipe,aka. FK.19
M:C
L:1/8
Q:160
C:"Swallows MS. 98"
S:Kidson's H'pipe MS,early 20thC.
R:Hornpipe
O:England
A:Leeds
N:"Hornpipe" in MS.My title.CGP
Z:vmp.John Bagnall
K:G
G2 GA BA G2 | gfge dB G2 | cBcd edcB | A2 fg af d2 |!
 G2 GA BA G2 | gfge dB G2 | cBcd edcB | cAFA G4 ||!
g2 fg af d2 | gfge dB G2 | cBcd edcB | A2 fg af d2 |!
 G2 GA BA G2 | gfge dB G2 | cBcd edcB | cAFA G4 |]


